X: 23291
T: Leckan Mor
R: jig
M: 6/8
K: Bminor
|:FBB dcB|f2b afd|ecc cde|gfe dcB|
FBB dcB|efb afd|efg fdB|cdF B3:|
fb2 faf|gfd BBc|dcd eef|gfd Bc2|
fab faf|gfd BBc|dcd eA2|eed cB2|
fb2 faf|gfd BBc|dcd eed|cde fef|
abf ae2|gfe Bc2|Fcd ede|ffe ded:|
cB2 z3||

